icons/twitter-line.svg

<svg xmlns="http://www.w3.org/2000/svg" width="24" height="24" fill="none"><g clip-path="url(#a)"><g><path fill="#121212" d="M15.2995 5.54999C14.5395 5.54987 13.8098 5.84811 13.2674 6.38056C12.7251 6.913 12.4134 7.63709 12.3995 8.39699L12.3715 9.97199C12.3699 10.0566 12.3504 10.1398 12.3143 10.2163C12.2782 10.2928 12.2264 10.3608 12.1622 10.4159C12.098 10.4709 12.0228 10.5118 11.9417 10.5358C11.8606 10.5597 11.7754 10.5663 11.6915 10.555L10.1305 10.343C8.07653 10.063 6.10853 9.11699 4.22053 7.54399C3.62253 10.854 4.79053 13.147 7.60353 14.916L9.35053 16.014C9.43354 16.0662 9.5025 16.1379 9.55138 16.2228C9.60026 16.3078 9.62757 16.4035 9.63093 16.5015C9.63428 16.5995 9.61358 16.6968 9.57062 16.7849C9.52767 16.873 9.46378 16.9493 9.38453 17.007L7.79253 18.17C8.73953 18.229 9.63853 18.187 10.3845 18.039C15.1025 17.097 18.2395 13.547 18.2395 7.69099C18.2395 7.21299 17.2275 5.54999 15.2995 5.54999ZM10.3995 8.35999C10.417 7.39604 10.7184 6.45866 11.2661 5.66521C11.8138 4.87177 12.5833 4.25751 13.4784 3.89936C14.3736 3.54121 15.3544 3.45507 16.2983 3.65174C17.2421 3.84841 18.107 4.31914 18.7845 5.00499C19.4955 4.99999 20.1005 5.17999 21.4535 4.35999C21.1185 5.99999 20.9535 6.71199 20.2395 7.69099C20.2395 15.333 15.5425 19.049 10.7765 20C7.50853 20.652 2.75653 19.581 1.39453 18.159C2.08853 18.105 4.90853 17.802 6.53853 16.609C5.15953 15.7 -0.329469 12.47 3.27753 3.78599C4.97053 5.76299 6.68753 7.10899 8.42753 7.82299C9.58553 8.29799 9.86953 8.28799 10.4005 8.36099L10.3995 8.35999Z"/></g></g><defs><clipPath id="a"><rect width="24" height="24" fill="white"/></clipPath></defs></svg>

<svg width="24" height="24" fill="none" xmlns="http://www.w3.org/2000/svg"><g clip-path="url(#a)"><path d="M15.3 5.55a2.9 2.9 0 0 0-2.9 2.847l-.029 1.575a.599.599 0 0 1-.68.583l-1.56-.212c-2.054-.28-4.022-1.226-5.91-2.799-.598 3.31.57 5.603 3.383 7.372l1.747 1.098a.6.6 0 0 1 .034.993L7.793 18.17c.947.059 1.846.017 2.591-.131 4.718-.942 7.855-4.492 7.855-10.348 0-.478-1.012-2.141-2.94-2.141Zm-4.9 2.81a4.9 4.9 0 0 1 8.385-3.355c.71-.005 1.316.175 2.668-.645-.334 1.64-.5 2.352-1.213 3.331 0 7.642-4.697 11.358-9.463 12.309-3.268.652-8.02-.419-9.382-1.841.694-.054 3.514-.357 5.144-1.55C5.159 15.7-.33 12.47 3.278 3.786c1.693 1.977 3.41 3.323 5.15 4.037 1.158.475 1.442.465 1.972.538V8.36Z" /></g><defs><clipPath id="a"><path fill="#fff" d="M0 0h24v24H0z"/></clipPath></defs></svg>
